app/dist/common/images/nmi-holdings.svg

<svg height="18" width="18" xmlns="http://www.w3.org/2000/svg"><path d="m0 0h18v18h-18z" fill="#124770"/><path d="m14 8h-1v5h1zm-10 5v-5h1l2.5 2.067 2.5-2.067h1.003v5h-1.003v-3.5l-2.5 2-2.5-2v3.5zm0-7.5v1.496h1.005c.105-.388 1.485-1.513 3.995-1.494s3.89 1.122 4 1.494h1v-1.496l-5-1.5z" fill="#fff"/></svg>

<!-- by TradingView --><svg width="18" height="18" xmlns="http://www.w3.org/2000/svg"><path fill="#124770" d="M0 0h18v18H0z"/><path d="M14 8h-1v5h1V8zM4 13V8h1l2.5 2.067L10 8h1.003v5H10V9.5l-2.5 2-2.5-2V13H4zM4 5.5v1.496h1.005C5.11 6.608 6.49 5.483 9 5.502c2.51.019 3.89 1.122 4 1.494h1V5.5L9 4 4 5.5z" fill="#fff"/></svg>
